Sources/FrostedUI/Resources/Icons.xcassets/atom12.imageset/atom-12.svg

<svg width="12" height="12" viewBox="0 0 12 12" fill="none" xmlns="http://www.w3.org/2000/svg" data-fui-icon="true">
  <g clip-path="url(#clip0_882_279)">
    <path
      d="M9.0918 0.128906C9.68525 0.0896736 10.4374 0.192777 11.0459 0.722656L11.165 0.833984C11.7923 1.46124 11.913 2.27519 11.8711 2.9082C11.8289 3.54502 11.6178 4.1958 11.3408 4.79883C11.1612 5.18975 10.9356 5.59185 10.6758 6C10.9357 6.40826 11.1612 6.81016 11.3408 7.20117C11.6179 7.80418 11.8278 8.454 11.8701 9.09082C11.9121 9.72376 11.7931 10.5377 11.166 11.165C10.5386 11.7925 9.72391 11.9121 9.09082 11.8701C8.45403 11.8278 7.80416 11.6178 7.20117 11.3408C6.81017 11.1612 6.40825 10.9357 6 10.6758C5.59174 10.9357 5.18983 11.1612 4.79883 11.3408C4.19584 11.6178 3.54597 11.8278 2.90918 11.8701C2.27609 11.9121 1.46143 11.7925 0.833984 11.165C0.206937 10.5377 0.0879222 9.72376 0.129883 9.09082C0.172157 8.454 0.382142 7.80418 0.65918 7.20117C0.838773 6.8103 1.06346 6.40811 1.32324 6C1.06355 5.592 0.838761 5.18961 0.65918 4.79883C0.382164 4.1958 0.171124 3.54502 0.128906 2.9082C0.0870475 2.27519 0.207707 1.46124 0.834961 0.833984L0.954102 0.722656C1.56261 0.192778 2.31475 0.0896726 2.9082 0.128906C3.54502 0.171125 4.1958 0.382158 4.79883 0.65918C5.18962 0.838762 5.592 1.06355 6 1.32324C6.408 1.06355 6.81038 0.838761 7.20117 0.65918C7.8042 0.382159 8.45498 0.171124 9.0918 0.128906ZM2.28125 7.32031C1.59497 8.56272 1.40727 9.61646 1.89453 10.1045L1.97852 10.1777C2.49692 10.5711 3.50459 10.3685 4.68066 9.71875C4.25393 9.37093 3.82912 8.99122 3.41895 8.58105C3.00903 8.17113 2.62886 7.74676 2.28125 7.32031ZM9.71777 7.32031C9.37027 7.7466 8.99082 8.17128 8.58105 8.58105C8.17069 8.99141 7.74529 9.3708 7.31836 9.71875C8.49475 10.3688 9.50297 10.5711 10.0215 10.1777L10.1055 10.1045C10.5928 9.6164 10.4042 8.56289 9.71777 7.32031ZM6 3.15137C5.49557 3.5342 4.98118 3.97882 4.48047 4.47949C3.97938 4.98058 3.5335 5.49516 3.15039 6C3.53327 6.50461 3.97866 7.01866 4.47949 7.51953C4.98028 8.02032 5.49546 8.46472 6 8.84766C6.50454 8.46472 7.01972 8.02032 7.52051 7.51953C8.02118 7.01882 8.46583 6.50446 8.84863 6C8.46561 5.49531 8.02047 4.98043 7.51953 4.47949C7.01882 3.97882 6.50443 3.5342 6 3.15137ZM6 5C6.55228 5 7 5.44772 7 6C6.99996 6.55225 6.55226 7 6 7C5.44774 7 5.00004 6.55225 5 6C5 5.44772 5.44772 5 6 5ZM4.67871 2.28125C3.43673 1.5954 2.38346 1.40736 1.89551 1.89453C1.4077 2.38234 1.59608 3.43603 2.28223 4.67871C2.62969 4.25255 3.00931 3.8286 3.41895 3.41895C3.82869 3.00921 4.25247 2.62873 4.67871 2.28125ZM10.1045 1.89453C9.61645 1.40726 8.56262 1.59507 7.32031 2.28125C7.74675 2.62885 8.17112 3.00903 8.58105 3.41895C8.99054 3.82844 9.36944 4.25271 9.7168 4.67871C10.4031 3.43586 10.5924 2.38239 10.1045 1.89453Z"
      fill="currentColor"
    />
  </g>
  <defs>
    <clipPath id="clip0_882_279"><path fill="currentColor" d="M0 0H12V12H0z" /></clipPath>
  </defs>
</svg>

<svg xmlns="http://www.w3.org/2000/svg" width="12" height="12" fill="none" data-fui-icon="true" viewBox="0 0 12 12"><g clip-path="url(#a)"><path fill="currentColor" d="M9.092.129c.593-.04 1.345.064 1.954.594l.119.111c.627.627.748 1.441.706 2.074-.042.637-.253 1.288-.53 1.89-.18.392-.405.794-.665 1.202.26.408.485.81.665 1.201.277.603.487 1.253.53 1.89.041.633-.078 1.447-.705 2.074-.627.628-1.442.747-2.075.705-.637-.042-1.287-.252-1.89-.53-.39-.179-.793-.404-1.201-.664-.408.26-.81.485-1.201.665-.603.277-1.253.487-1.89.53-.633.041-1.448-.079-2.075-.706S.088 9.724.13 9.091c.042-.637.252-1.287.53-1.89.179-.39.403-.793.663-1.201-.26-.408-.484-.81-.664-1.201-.277-.603-.488-1.254-.53-1.89C.087 2.274.208 1.46.835.833l.12-.111C1.562.193 2.314.09 2.907.129c.637.042 1.288.253 1.89.53.392.18.794.405 1.202.664.408-.26.81-.484 1.201-.664.603-.277 1.254-.488 1.89-.53M2.282 7.32c-.687 1.243-.875 2.296-.387 2.784l.084.074c.518.393 1.526.19 2.702-.46a17 17 0 0 1-1.262-1.137c-.41-.41-.79-.834-1.138-1.26m7.436 0c-.348.427-.727.851-1.137 1.261s-.836.79-1.263 1.138c1.177.65 2.185.852 2.704.459l.083-.074c.488-.488.3-1.541-.387-2.784M6 3.151c-.504.383-1.019.828-1.52 1.328A15 15 0 0 0 3.15 6c.383.505.829 1.019 1.33 1.52.5.5 1.015.945 1.52 1.328A15 15 0 0 0 8.849 6a15 15 0 0 0-1.33-1.52C7.02 3.978 6.505 3.533 6 3.15M6 5a1 1 0 1 1 0 2 1 1 0 0 1 0-2M4.679 2.281c-1.242-.686-2.296-.874-2.783-.386-.488.487-.3 1.541.386 2.784A16.8 16.8 0 0 1 4.68 2.28m5.426-.386c-.489-.488-1.542-.3-2.785.386.427.348.851.728 1.261 1.138s.788.834 1.136 1.26c.686-1.243.875-2.297.387-2.784"/></g><defs><clipPath id="a"><path fill="currentColor" d="M0 0h12v12H0z"/></clipPath></defs></svg>
